public/buttons/actionButtons/saveIcon.svg

<svg width="18" height="22" viewBox="0 0 18 22" fill="none" xmlns="http://www.w3.org/2000/svg">
<path d="M1 16.9808V8.70753C1 5.07416 1 3.25748 2.17157 2.12874C3.34315 1 5.22876 1 9 1C12.7712 1 14.6569 1 15.8284 2.12874C17 3.25748 17 5.07416 17 8.70753V16.9808C17 19.2867 17 20.4396 16.2272 20.8523C14.7305 21.6514 11.9232 18.9852 10.59 18.1824C9.8168 17.7168 9.43019 17.484 9 17.484C8.56981 17.484 8.18321 17.7168 7.41 18.1824C6.0768 18.9852 3.26947 21.6514 1.77285 20.8523C1 20.4396 1 19.2867 1 16.9808Z" stroke="#EBEBEB" stroke-width="1.5" stroke-linecap="round" stroke-linejoin="round"/>
</svg>

<svg xmlns="http://www.w3.org/2000/svg" width="18" height="22" fill="none"><path stroke="#EBEBEB" stroke-linecap="round" stroke-linejoin="round" stroke-width="1.5" d="M1 16.98V8.709c0-3.634 0-5.45 1.172-6.58C3.343 1 5.229 1 9 1c3.771 0 5.657 0 6.828 1.129C17 3.257 17 5.074 17 8.708v8.273c0 2.306 0 3.459-.773 3.871-1.497.8-4.304-1.867-5.637-2.67-.773-.465-1.16-.698-1.59-.698-.43 0-.817.233-1.59.698-1.333.803-4.14 3.47-5.637 2.67C1 20.44 1 19.287 1 16.981Z"/></svg>
